X: 53
T: BLACK EYED SUSAN
B: O'Neill's 53
M: 6/8
L: 1/8
Z: 1999 by John Chambers <jc@trillian.mit.edu>
N: "Slow"
N: "Collected by J.O'Neill"
N: 1st Setting.
K:Gm
D \
| (G2A) (BAG) | (^F2G) D2D | (G2A) (BAG) | ^F2G HA2 d |
| (d2A) (GFD) | (D2C) (B,2C) | (D2G) (GBA) | G2^F G2 ||
|| z \
| (G2F) (F2D) | (B2A) G3 | (B>c)d (c<A)G | F3- F2D |
| G2A (B>AB/c/) | Hd3 He2 c | (B2A) (TG^FA) | G2^F G2 ||


